X:1
T:Title
%%score [ ( 1 2 ) ( 3 4 ) ]
L:1/8
M:none
K:C
V:1 treble nm=" " snm=" "
V:2 treble 
V:3 bass nm="Midi_74"
V:4 bass 
V:1
[K:Eb]"^Charles Wesley\n(1707-88)\nand others" E4 | G2 A2 B2 E2 | %2
w: Let|saints on earth in|
w: ||
w: One|ar- my of the|
w: ||
w: Je-|su, be thou our|
 F2"^NEH 396 Let saints on earth" G2 A4 || G4 | %4
w: con- cert sing|with|
w: ||
w: liv- ing God,|to|
w: ||
w: con- stant Guide;|then,|
 F2 E2"^Melody: Scottish Psalter\nHarmony: Ravenscroft's Psalmes" E2 D2 | E4 || B4 | e2 d2 c2 B2 | %8
w: those whose work is|done;|for|all the ser- vants|
w: ||||
w: his com- mand we|bow;|part|of his host has|
w: ||||
w: when the word is|giv'n,|bid|Jor- dan's nar- row|
 B2 =A2 B4 || G4 | F2 E2 E2 D2 | E4 |] %12
w: of our King|in|earth and heav'n are|one.|
w: ||||
w: crossed the flood,|and|part is cross- ing|now.|
w: ||||
w: stream di- vide,|and|bring us safe to|heav'n.|
V:2
[K:Eb] B,4 | E2 E2 B,2 B,2 | _D2 D2 E4 || E4 | D2 C2 C2 B,2 | B,4 || E4 | G2 F2 E2 D2 | C2 C2 D4 || %9
w: |||||||||
w: One|fa- mi- ly, we|dwell in him,|one|church, a- bove, be-|neath;|though|now di- vi- ded|by the stream,|
w: |||||||||
w: E'en|now to their e-|ter- nal home|there|pass some spi- rits|blest,|while|oth- ers to the|mar- gin come,|
 B,4 | C2 G,A, B,2 B,2 | B,4 |] %12
w: |||
w: the|nar- row * stream of|death.|
w: |||
w: wait-|ing their * call to|rest.|
V:3
[K:Eb] G,4 | B,2 C2 F,2 G,2 | A,2 B,2 C4 || B,4 | B,2 G,2 A,2 F,2 | G,4 || G,4 | B,2 B,2 G,2 F,2 | %8
 G,2 F,2 F,4 || G,4 | A,2 E,2 F,2 F,2 | G,4 |] %12
V:4
[K:Eb] E,4 | E,2 C,2 D,2 E,2 | _D,2 B,,2 A,,4 || E,4 | B,,2 C,2 A,,2 B,,2 | E,4 || E,4 | %7
 E,2 B,,2 C,2 D,2 | E,2 F,2 B,,4 || E,4 | A,,2 C,2 B,,2 B,,2 | E,4 |] %12

